!!!COM: Sousa, John Phillip
!!!CDT: 1854/11/05/-1932/04/08/
!!!OTL: Hands Across the Sea
!!!ODT: 1899///
!!!ONB: Arrangement for keyboard
**kern	**kern	**dynam
*staff2	*staff1	*staff1
*Ipiano	*Ipiano	*Ipiano
*>[I,A,A1,A,A2,B,C,C1,C,C2]	*>[I,A,A1,A,A2,B,C,C1,C,C2]	*>[I,A,A1,A,A2,B,C,C1,C,C2]
*>norep[I,A,A2,B,C,C2]	*>norep[I,A,A2,B,C,C2]	*>norep[I,A,A2,B,C,C2]
*>I	*>I	*>I
*clefF4	*clefG2	*clefG2
*k[b-]	*k[b-]	*k[b-]
*F:	*F:	*F:
*M2/2	*M2/2	*M2/2
*MM160	*MM160	*MM160
=1-	=1-	=1-
8F'\L	8ff'\L	ff
8E'\	8ee'\	.
8D'\	8dd'\	.
8D-'\J	8dd-'\J	.
4C'/	4cc'\	.
4F'\	4ff'\	.
=2	=2	=2
4CC#'/ 4C#'/	4a'\ 4gg'\ 4aa'\	.
4DD'/ 4D'/	4a'\ 4ff'\ 4aa'\	.
2DD-/ 2D-/	2b-\ 2ff\ 2gg\ 2bb-\	.
=3	=3	=3
4C\ 4F\ 4A\	8ff'\ 8aa'\L	.
.	8ff'\ 8bb-'\	.
8C'\ 8F'\ 8A'\	8ff'\ 8ccc'\J	.
8r	8r	.
4DD-'/ 4D-'/	4g'\ 4b-'\ 4ff'\	.
4DD-'/ 4D-'/	4g'\ 4b-'\ 4gg'\	.
=4	=4	=4
4CC/ 4C/	4g\ 4b-\ 4ee\	.
4r	4r	.
4AAA/ 4AA/	4a\ 4cc#\ 4ee\ 4aa\	.
4r	4r	.
=5	=5	=5
*>A	*>A	*>A
4DD'/ 4D'/	4a'\ 4dd'\ 4ff'\	.
4F'\ 4A'\	4r	.
4BB-'/	8gg'\L	mf
.	8ff'\	.
4D'\ 4G'\	8dd'\	.
.	8b-'\J	.
=6	=6	=6
4C/	(4a/	.
4F\ 4A\	8ff\)	.
.	8r	.
4AA/	8f/L	.
.	8e/	.
4F\ 4A\	8f/	.
.	8a/J	.
=7	=7	=7
4GG/	8cc'\	.
.	8r	.
4E\ 4B-\ 4c\	8g'/L	.
.	8g'/J	.
4C/	8g'/L	.
.	8r	.
4B-\ 4c\	8a'/J	.
.	8r	.
=8	=8	=8
4F\	4f/	.
4A\ 4c\	4r	.
.	(gq/	.
4C/	8f/L	.
.	8e/)	.
4A\ 4c\	8f'/	.
.	8g'/J	.
=9	=9	=9
*^	*	*
4r	2F\	8a/	.
.	.	8r	.
4A/ 4c/	.	8a/L	.
.	.	8a/J	.
4r	2E\	8a/L	.
.	.	8r	.
4F/ 4A/	.	8a/J	.
.	.	8r	.
=10	=10	=10	=10
4r	2D\	(4a/	.
4F/ 4A/	.	8dd\)	.
.	.	8r	.
4r	2C\	8dd'\L	.
.	.	8dd'\	.
4F/ 4A/	.	8dd'\	.
.	.	8dd'\J	.
*v	*v	*	*
=11	=11	=11
4BBn/	8dd\	<
.	8r	.
4F\ 4G\	8dd\L	.
.	8dd\J	.
4GG/	8dd\	.
.	8r	.
4F\ 4G\ 4Bn\	8f\ 8ff\	.
.	8r	.
=12	=12	=12
4C/	2e/ (2ee/	.
4E\ 4G\ 4c\	.	.
4AA\ 4A\	4a\ 4cc#\ 4ee\ 4aa\)	.
4r	4r	.
=13	=13	=13
4DD'/ 4D'/	4a'\ 4dd'\ 4ff'\	.
4F\ 4A\	4r	.
4BB-/	8gg'\L	mf
.	8ff'\	.
4D\ 4G\	8dd'\	.
.	8b-'\J	.
=14	=14	=14
4C/	(4a/	.
4F\ 4A\	8ff\)	.
.	8r	.
4AA/	8f'/L	.
.	8e'/	.
4F\ 4A\	8f'/	.
.	8a'/J	.
=15	=15	=15
4GG/	8cc'\	.
.	8r	.
4E\ 4B-\ 4c\	8g'/L	.
.	8g'/J	.
4C/	8g'/L	.
.	8r	.
4B-\ 4c\	8a'/J	.
.	8r	.
=16	=16	=16
4F\	4f/	.
4A\ 4c\	4r	.
.	(gq/	.
4C/	8f/L	.
.	8e/)	.
4A\ 4c\	8f'/	.
.	8g'/J	.
=17	=17	=17
4F\	8a/	.
.	8r	.
4A\ 4c\	8a/L	.
.	8a/J	.
4F\	8a/L	.
.	8r	.
4A\ 4d\	8a/J	.
.	8r	.
=18	=18	=18
4E\	8a/	.
.	8r	.
4A\ 4c\	8a\ 8aa\L	.
.	8r	.
4E\	8g\ 8gg\J	.
.	8r	.
4A\ 4c\	8f\ 8ff\	.
.	8r	.
=19	=19	=19
8E\ 8G#\ 8d\	8e/ 8ee/	.
8r	8r	.
8E\ 8G#\ 8d\	8e/ 8ee/L	.
8r	8e/ 8ee/J	.
8E\ 8G#\ 8d\	8e/ 8ee/L	.
8r	8r	.
8E\ 8G#\	8e/ 8bn/J	.
8r	8r	.
=20	=20	=20
*>A1	*>A1	*>A1
4C\ 4c\	4e/ 4b-/ 4ee/	.
4r	4r	.
4AA\ 4A\	4a\ 4cc#\ 4ee\ 4aa\	.
4r	4r	.
=21:|!	=21:|!	=21:|!
*>A2	*>A2	*>A2
4C\ 4c\	4e/ 4b-/ 4ee/	.
4r	8r	.
.	8cc\ (8ccc\	>
2r	4.dd\ 4.ddd\	.
.	8b-\ 8bb-\)	.
=22	=22	=22
*>B	*>B	*>B
4FF/ 4F/	4a\ 4aa\	ff
4A\ 4c\	8r	.
.	8g#\ (8gg#\	.
4C/	2a\ 2aa\)	.
4A\ 4c\	.	.
=23	=23	=23
4F\	4cc\ 4ccc\	.
4A\ 4c\	4ff\ 4fff\	.
4C/	4cc\ 4ccc\	.
4A\ 4c\	8r	.
.	8b-\ (8bb-\	.
=24	=24	=24
4F\	4a\ 4aa\)	.
4A\ 4c\	8r	.
.	8g#\ (8gg#\	.
4C/	2a\ 2aa\)	.
4A\ 4c\	.	.
=25	=25	=25
4F\	4r	.
4A\ 4c\	4ff\	.
4FF/ 4F/	4ff\ 4aa\	.
4EE/ 4E/	4ff\ 4ccc\	.
=26	=26	=26
4DD/ 4D/	4ff\ 4fff\	.
4F\ 4A\	8r	.
.	8ee\ (8eee\	.
4D\	2ff\ 2fff\)	.
4F\ 4A\	.	.
=27	=27	=27
4GG/	4.dd\ (4.ddd\	.
4F\ 4G\ 4Bn\	.	.
.	8ee\ 8eee\	.
4GG/	4ff\ 4fff\	.
4F\ 4G\ 4B\	4dd\ 4ddd\)	.
=28	=28	=28
4C/	[1g [1cc [1gg	.
4E\ 4G\ 4c\	.	.
4BBn/	.	.
4E\ 4G\	.	.
=29	=29	=29
4BB-/	4g\] 4cc\] 4gg\]	.
4E\ 4G\	4r	.
4AA\ 4A\	4f\ 4ff\	.
4GG/ 4G/	4g\ 4cc\ 4gg\	.
=30	=30	=30
4FF/ 4F/	4a\ 4cc\ 4aa\	.
4A\ 4c\	8r	.
.	8g#\ (8gg#\	.
4E\	2a\ 2aa\)	.
4G\ 4A\ 4c#\	.	.
=31	=31	=31
4D\	4dd\	.
4F\ 4A\ 4d\	4a\ 4aa\	.
4FF/ 4F/	4a\ 4dd\	.
4EE/ 4E/	4g\ 4cc#\ 4ee\	.
=32	=32	=32
4DD/ 4D/	4f\ 4dd\ 4ff\	.
4F\ 4A\	8r	.
.	8e\ (8ee\	.
4C/	2f\ 2ff\)	.
4E-\ 4F\ 4A\	.	.
=33	=33	=33
4BB-/	4bb-\	.
4D\ 4F\ 4B-\	4ff\ 4fff\	.
4DD/ 4D/	4ff\ 4bb-\	.
4DD-/ 4D-/	4ff\ 4bbn\	.
=34	=34	=34
4CC/ 4C/	4.ff\ 4.aa\ 4.ccc\	.
4F\ 4A\	.	.
.	8ff\ 8fff\	.
4AA/	4cc\ 4ccc\	.
4F\ 4A\	4dd\ 4ddd\	.
=35	=35	=35
4GG/	4.b-\ 4.bb-\	.
4E\ 4B-\ 4c\	.	.
.	8a\ 8aa\	.
4C/	4b-\ 4bb-\	.
4E\ 4B-\ 4c\	4g\ 4gg\	.
=36	=36	=36
*	*^	*
4F\ 4A\ 4c\	[1ff	4f\ 4a\ 4cc\	.
8r	.	4f\ 4a\ 4cc\	.
8EE/ 8E/	.	.	.
4DD/ 4D/	.	4f\ 4a\ 4cc\	.
4CC/ 4C/	.	4f\ 4a\ 4cc\	.
=37	=37	=37	=37
4FF/ 4F/	4ff/]	4f\ 4a\ 4cc\	.
4r	2.r	8r	.
.	.	8cc\ (8ccc\	.
2r	.	4.dd\ 4.ddd\	.
.	.	8b-\ 8bb-\)	.
*	*v	*v	*
=38	=38	=38
4FF/ 4F/	4a\ 4aa\	.
4A\ 4c\	8r	.
.	8g#\ (8gg#\	.
4C/	2a\ 2aa\)	.
4A\ 4c\	.	.
=39	=39	=39
4F\	4cc\ 4ccc\	.
4A\ 4c\	4ff\ 4fff\	.
4C/	4cc\ 4ccc\	.
4A\ 4c\	8r	.
.	8b-\ (8bb-\	.
=40	=40	=40
4F\	4a\ 4aa\)	.
4A\ 4c\	8r	.
.	8g#\ (8gg#\	.
4C/	2a\ 2aa\)	.
4A\ 4c\	.	.
=41	=41	=41
4F\	4r	.
4A\ 4c\	4ff\	.
4FF/ 4F/	4ff\ 4aa\	.
4EE/ 4E/	4ff\ 4ccc\	.
=42	=42	=42
4DD/ 4D/	4ff\ 4fff\	.
4F\ 4A\	8r	.
.	8ee\ (8eee\	.
4D\	2ff\ 2fff\)	.
4F\ 4A\	.	.
=43	=43	=43
4GG/	4.dd\ (4.ddd\	.
4F\ 4G\ 4Bn\	.	.
.	8ee\ 8eee\	.
4GG/	4ff\ 4fff\	.
4F\ 4G\ 4B\	4dd\ 4ddd\)	.
=44	=44	=44
4C/	[1g [1cc [1gg	.
4E\ 4G\ 4c\	.	.
4BBn/	.	.
4E\ 4G\	.	.
=45	=45	=45
4BB-/	4g\] 4cc\] 4gg\]	.
4E\ 4G\	4r	.
4AA\ 4A\	4f\ 4ff\	.
4GG/ 4G/	4g\ 4cc\ 4gg\	.
=46	=46	=46
4FF/ 4F/	4a\ 4cc\ 4aa\	.
4A\ 4c\	8r	.
.	8g#\ (8gg#\	.
4E\	2a\ 2aa\)	.
4G\ 4A\ 4c#\	.	.
=47	=47	=47
4D\	4dd\	.
4F\ 4A\ 4d\	4a\ 4aa\	.
4FF/ 4F/	4a\ 4dd\	.
4EE/ 4E/	4g\ 4cc#\ 4ee\	.
=48	=48	=48
4DD/ 4D/	4f\ 4dd\ 4ff\	.
4F\ 4A\	8r	.
.	8e\ (8ee\	.
4C/	2f\ 2ff\)	.
4E-\ 4F\ 4A\	.	.
=49	=49	=49
4BB-/	4bb-\	.
4D\ 4F\ 4B-\	4ff\ 4fff\	.
4DD/ 4D/	4ff\ 4bb-\	.
4DD-/ 4D-/	4ff\ 4bbn\	.
=50	=50	=50
4CC/ 4C/	4.ff\ 4.aa\ 4.ccc\	.
4F\ 4A\	.	.
.	8ff\ 8fff\	.
4AA/	4cc\ 4ccc\	.
4F\ 4A\	4dd\ 4ddd\	.
=51	=51	=51
4GG/	4.b-\ 4.bb-\	.
4E\ 4B-\ 4c\	.	.
.	8a\ 8aa\	.
4C/	4b-\ 4bb-\	.
4E\ 4B-\ 4c\	4g\ 4gg\	.
=52	=52	=52
*	*^	*
4F\ 4A\ 4c\	[1ff	4f\ 4a\ 4cc\	.
8r	.	4f\ 4a\ 4cc\	.
8EE/ 8E/	.	.	.
4DD/ 4D/	.	4f\ 4a\ 4cc\	.
4CC/ 4C/	.	4f\ 4a\ 4cc\	.
=53	=53	=53	=53
4FF/ 4F/	4ff/]	4f\ 4a\ 4cc\	.
4r	2.r	4r	.
2F\	.	2f/	p
*	*v	*v	*
=54	=54	=54
*k[b-e-]	*k[b-e-]	*k[b-e-]
4BB-/	(4.b-\	p
4F\ 4B-\ 4d\	.	.
.	8cc\	.
4FF/	4.dd\	.
4F\ 4B-\ 4d\	.	.
.	8cc\	.
=55	=55	=55
4BB-/	2b-\	.
4F\ 4B-\ 4d\	.	.
4FF/	2f/)	.
4F\ 4B-\ 4d\	.	.
=56	=56	=56
*	*^	*
4BB-/	4r	[1b-	.
4F\ 4B-\ 4d\	(8ddd/L	.	.
.	8ccc/J	.	.
4FF/	4bb-/)	.	.
4F\ 4B-\ 4d\	(8ddd/L	.	.
.	8ccc/J	.	.
=57	=57	=57	=57
4BB-/	4bb-/)	2b-\]	.
4F\ 4B-\ 4d\	4r	.	.
4FF/	2r	2f\	.
4F\ 4B-\ 4d\	.	.	.
*	*v	*v	*
=58	=58	=58
4AA/	(4.cc\	.
4F\ 4c\ 4e-\	.	.
.	8dd\	.
4FF/	4.ee-\	.
4F\ 4c\ 4e-\	.	.
.	8dd\	.
=59	=59	=59
4AA/	2cc\	.
4F\ 4c\ 4e-\	.	.
4FF/	2f/)	.
4F\ 4c\ 4e-\	.	.
=60	=60	=60
*	*^	*
4AA/	4r	[1cc	.
4F\ 4c\ 4e-\	(8eee-/L	.	.
.	8ddd/J	.	.
4FF/	4ccc/)	.	.
4F\ 4c\ 4e-\	(8eee-/L	.	.
.	8ddd/J	.	.
=61	=61	=61	=61
4AA/	4ccc/)	2cc\]	.
4F\ 4c\ 4e-\	4r	.	.
4FF/	2r	2f\	.
4F\ 4c\ 4e-\	.	.	.
*	*v	*v	*
=62	=62	=62
4BB-/	(4.dd\	.
4F\ 4B-\ 4d\	.	.
.	8ee-\	.
4BB-/	4.ff\	.
4F\ 4B-\ 4d\	.	.
.	8een\	.
=63	=63	=63
4BB-/	4.ff\	.
4F\ 4B-\ 4d\	.	.
.	8een\	.
4BB-/	4.ff\	.
4F\ 4B-\ 4d\	.	.
.	8dd\)	.
=64	=64	=64
4E-\	(4.ee-\	.
4G\ 4B-\ 4e-\	.	.
.	8ff\	.
4E-\	4.gg\	.
4F\ 4B-\ 4e-\	.	.
.	8ff#\	.
=65	=65	=65
4E-\	4.gg\	.
4G\ 4B-\ 4e-\	.	.
.	8ff#\	.
4E-\	4.gg\	.
4G\ 4B-\ 4e-\	.	.
.	8ee-\)	.
=66	=66	=66
4.D\ 4.B-\ (4.d\	4.b-\ (4.ff\	>
8G\	8b-\ 8bb-\	.
4.E-\	4.b-\ 4.gg\	.
8C/)	8ee-\)	.
=67	=67	=67
4FF/	2cc\	.
4E-\ 4B-\	.	.
4FF/	2f/ 2cc/	.
4E-\ 4A\	.	.
=68	=68	=68
*	*^	*
(4.BBB-/ 4.BB-/	[1b-	4d\ 4f\	.
.	.	4d\ 4f\	.
8CC/ 8C/	.	.	.
4.DD/ 4.D/	.	4d\ 4f\	.
.	.	4d\ 4f\	.
8CC/ 8C/	.	.	.
=69	=69	=69	=69
4BBB-/) 4BB-/	4b-/]	4d\ 4f\	.
4r	2.r	4r	.
2F\	.	2f/	.
*	*v	*v	*
=70	=70	=70
4BB-/	(4.b-\	p
4F\ 4B-\ 4d\	.	.
.	8cc\	.
4FF/	4.dd\	.
4F\ 4B-\ 4d\	.	.
.	8cc\	.
=71	=71	=71
4BB-/	2b-\	.
4F\ 4B-\ 4d\	.	.
4FF/	2f/)	.
4F\ 4B-\ 4d\	.	.
=72	=72	=72
*	*^	*
4BB-/	4r	[1b-	.
4F\ 4B-\ 4d\	(8ddd/L	.	.
.	8ccc/J	.	.
4FF/	4bb-/)	.	.
4F\ 4B-\ 4d\	(8ddd/L	.	.
.	8ccc/J	.	.
=73	=73	=73	=73
4BB-/	4bb-/)	2b-\]	.
4F\ 4B-\ 4d\	4r	.	.
4FF/	2r	2f\	.
4F\ 4B-\ 4d\	.	.	.
*	*v	*v	*
=74	=74	=74
4AA/	(4.cc\	.
4F\ 4c\ 4e-\	.	.
.	8dd\	.
4FF/	4.ee-\	.
4F\ 4c\ 4e-\	.	.
.	8dd\	.
=75	=75	=75
4AA/	2cc\	.
4F\ 4c\ 4e-\	.	.
4FF/	2f/)	.
4F\ 4c\ 4e-\	.	.
=76	=76	=76
*	*^	*
4AA/	4r	[1cc	.
4F\ 4c\ 4e-\	(8eee-/L	.	.
.	8ddd/J	.	.
4FF/	4ccc/)	.	.
4F\ 4c\ 4e-\	(8eee-/L	.	.
.	8ddd/J	.	.
=77	=77	=77	=77
4AA/	4ccc/)	2cc\]	.
4F\ 4c\ 4e-\	4r	.	.
4FF/	2r	2f\	.
4F\ 4c\ 4e-\	.	.	.
*	*v	*v	*
=78	=78	=78
4BB-/	(4.dd\	.
4F\ 4B-\ 4d\	.	.
.	8ee-\	.
4BB-/	4.ff\	.
4F\ 4B-\ 4d\	.	.
.	8een\	.
=79	=79	=79
4BB-/	4.ff\	.
4F\ 4B-\ 4d\	.	.
.	8een\	.
4BB-/	4.ff\	.
4F\ 4B-\ 4d\	.	.
.	8dd\)	.
=80	=80	=80
4E-\	(4.ee-\	.
4G\ 4B-\ 4e-\	.	.
.	8ff\	.
4E-\	4.gg\	.
4F\ 4B-\ 4e-\	.	.
.	8ff#\	.
=81	=81	=81
4E-\	4.gg\	.
4G\ 4B-\ 4e-\	.	.
.	8ff#\	.
4E-\	4.gg\	.
4G\ 4B-\ 4e-\	.	.
.	8ee-\)	.
=82	=82	=82
4.D\ 4.B-\ (4.d\	4.b-\ (4.ff\	>
8G\	8b-\ 8bb-\	.
4.E-\	4.b-\ 4.gg\	.
8C/)	8ee-\)	.
=83	=83	=83
4FF/	2cc\	.
4E-\ 4B-\	.	.
4FF/	2f/ 2cc/	.
4E-\ 4A\	.	.
=84	=84	=84
*	*^	*
(4.BBB-/ 4.BB-/	[1b-	4d\ 4f\	.
.	.	4d\ 4f\	.
8CC/ 8C/	.	.	.
4.DD/ 4.D/	.	4d\ 4f\	.
.	.	4d\ 4f\	.
8CC/ 8C/	.	.	.
=85	=85	=85	=85
4BBB-/) 4BB-/	4b-/]	4d\ 4f\	ff
8r	4r	2.r	.
8FF/ 8F/	.	.	.
4DD/ 4D/	2r	.	.
4CC/ 4C/	.	.	.
*	*v	*v	*
=86	=86	=86
*>C	*>C	*>C
4BBBn/ 4BBn/	2r	.
4r	.	.
(2Bn\	8ff\ (8aa-\L	ff
.	8dd\	.
.	8ff\ 8aa-\	.
.	8dd\J)	.
=87	=87	=87
4c\)	4ee-\ (4gg\	.
4r	4cc\	.
4.GGG/ 4.GG/	4ee-\ 4gg\	.
.	4cc\)	.
8GGG/ 8GG/	.	.
=88	=88	=88
4.CC/ 4.C/	4cc\ 4ee-\ 4gg\	.
.	4r	.
8DD/ 8D/	.	.
4EE-/ 4E-/	4r	.
4DD/ 4D/	4bn'\ 4ff'\ 4gg'\	.
=89	=89	=89
4CC/ 4C/	4cc'\ 4ee-'\ 4ccc'\	.
8r	4r	.
8GG/ 8G/	.	.
4EE-/ 4E-/	2r	.
4DD/ 4D/	.	.
=90	=90	=90
4CC#/ 4C#/	2r	.
4r	.	.
(2c#\	4gg\ (4bb-\	.
.	4een\)	.
=91	=91	=91
4d\)	4ff\ (4aa\	.
4r	4dd\	.
4.AAA/ 4.AA/	4ff\ 4aa\	.
.	4dd\)	.
8AAA/ 8AA/	.	.
=92	=92	=92
4.DD/ 4.D/	4dd\ 4ff\ 4aa\	.
.	4r	.
8EEn/ 8En/	.	.
4FF/ 4F/	4r	.
4EE/ 4E/	4cc#\ 4gg\ 4aa\	.
=93	=93	=93
4DD/ 4D/	4dd\ 4ff\ 4ddd\	.
8r	4r	.
8AA\ 8A\	.	.
4FF/ 4F/	2r	.
4EEn/ 4En/	.	.
=94	=94	=94
2.EE-/ 2.E-/	1r	.
4DD/ 4D/	.	.
=95	=95	=95
2.CC/ 2.C/	2.ee-\ 2.eee-\	<
4DD/ 4D/	4dd\ 4ddd\	.
=96	=96	=96
2.EE-/ 2.E-/	2.cc\ 2.ccc\	.
4DD/ 4D/	4dd\ 4ddd\	.
=97	=97	=97
2.CC/ 2.C/	2.ee-\ 2.eee-\	.
4DD/ 4D/	4dd\ 4ddd\	.
=98	=98	=98
4EE-/ 4E-/	4cc\ 4ccc\	.
4DD/ 4D/	4dd\ 4ddd\	.
4EE-/ 4E-/	4ee-\ 4eee-\	.
4FF/ 4F/	4ff\ 4fff\	.
=99	=99	=99
4GG-/ 4G-/	4gg-\ 4ggg-\	.
4EE-/ 4E-/	4ee-\ 4eee-\	.
2r	2r	.
=100	=100	=100
8GG-'/ 8G-'/L	8gg-'\L	.
8FF'/ 8F'/J	8ff'\J	.
4EE-'/ 4E-'/	4ee-'\	.
4CC/ 4C/	4cc\ 4ccc\	.
4BBB-/ 4BB-/	4b-\ 4bb-\	.
=101	=101	=101
4AAA/ 4AA/	4a\ 4aa\	.
4FF/	4f\ 4ff\	.
4GG/	4g\ 4gg\	.
4AA/	4a\ 4aa\	.
=102	=102	=102
4BBB-/ 4BB-/	4.b-\ (4.bb-\	ff
4F\ 4B-\ 4d\	.	.
.	8cc\ 8ccc\	.
4FF/	4.dd\ 4.ddd\	.
4F\ 4B-\ 4d\	.	.
.	8cc\ 8ccc\	.
=103	=103	=103
4BB-/	2b-\ 2bb-\	.
4F\ 4B-\ 4d\	.	.
4FF/	2f\ 2ff\)	.
4F\ 4B-\ 4d\	.	.
=104	=104	=104
*	*^	*
4BB-/	[1b- [1bb-	4r	.
4F\ 4B-\ 4d\	.	8dd/L	.
.	.	8cc/J	.
4FF/	.	4b-/	.
4F\ 4B-\ 4d\	.	8dd/L	.
.	.	8cc/J	.
=105	=105	=105	=105
4BB-/	2b-/] 2bb-/]	4b-/	.
4F\ 4B-\ 4d\	.	2.r	.
4FF/	2f/ 2ff/	.	.
4F\ 4B-\ 4d\	.	.	.
*	*v	*v	*
=106	=106	=106
4AA/	4.cc\ (4.ccc\	.
4F\ 4c\ 4e-\	.	.
.	8dd\ 8ddd\	.
4FF/	4.ee-\ 4.eee-\	.
4F\ 4c\ 4e-\	.	.
.	8dd\ 8ddd\	.
=107	=107	=107
4AA/	2cc\ 2ccc\	.
4F\ 4c\ 4e-\	.	.
4FF/	2f\ 2ff\)	.
4F\ 4c\ 4e-\	.	.
=108	=108	=108
*	*^	*
4AA/	(1cc [1ccc	4r	.
4F\ 4c\ 4e-\	.	8ee-/L	.
.	.	8dd/J	.
4FF/	.	4cc/	.
4F\ 4c\ 4e-\	.	8ee-/L	.
.	.	8dd/J	.
=109	=109	=109	=109
4AA/	2a/) 2ccc/]	4cc/	.
4F\ 4c\ 4e-\	.	2.r	.
4FF/	2f/ 2ff/	.	.
4F\ 4c\ 4e-\	.	.	.
*	*v	*v	*
=110	=110	=110
4BB-/	4.dd\ (4.ddd\	.
4F\ 4B-\ 4d\	.	.
.	8ee-\ 8eee-\	.
4BB-/	4.ff\ 4.fff\	.
4F\ 4B-\ 4d\	.	.
.	8een\ 8eeen\	.
=111	=111	=111
4BB-/	4.ff\ 4.fff\	.
4F\ 4B-\ 4d\	.	.
.	8een\ 8eeen\	.
4BB-/	4.ff\ 4.fff\	.
4F\ 4B-\ 4d\	.	.
.	8dd\ 8ddd\)	.
=112	=112	=112
4E-\	4.ee-\ (4.eee-\	.
4G\ 4B-\ 4e-\	.	.
.	8ff\ 8fff\	.
4E-\	4.gg\ 4.ggg\	.
4G\ 4B-\ 4e-\	.	.
.	8ff#\ 8fff#\	.
=113	=113	=113
4E-\	4.gg\ 4.ggg\	.
4G\ 4B-\ 4e-\	.	.
.	8ff#\ 8fff#\	.
4E-\	4.gg\ 4.ggg\	.
4G\ 4B-\ 4e-\	.	.
.	8ee-\ 8eee-\)	.
=114	=114	=114
4D\ 4B-\ 4d\	4.ff\ (4.fff\	.
8r	.	.
(8G\	8bb-\ 8bbb-\	.
4.E-\	4.gg\ 4.ggg\	.
8C/)	8ee-\ 8eee-\)	.
=115	=115	=115
4FF/	2cc\ 2ee-\ 2ccc\	.
4E-\ 4B-\	.	.
4FF/	2cc\ 2ee-\ 2ccc\	.
4E-\ 4A\	.	.
=116	=116	=116
*	*^	*
(4.BBB-/ 4.BB-/	[1bb-	4b-\ 4dd\ 4ff\	.
.	.	4b-\ 4dd\ 4ff\	.
8CC/ 8C/	.	.	.
4.DD/ 4.D/	.	4b-\ 4dd\ 4ff\	.
.	.	4b-\ 4dd\ 4ff\	.
8CC/ 8C/	.	.	.
*	*v	*v	*
=117	=117	=117
*>C1	*>C1	*>C1
*	*^	*
4BBB-/) 4BB-/	4bb-/]	4b-\ 4dd\ 4ff\	.
8r	2.r	4r	.
8FF/ 8F/	.	.	.
4DD/ 4D/	.	2r	.
4CC/ 4C/	.	.	.
*	*v	*v	*
=118:|!	=118:|!	=118:|!
*>C2	*>C2	*>C2
*	*^	*
4BBB-/ 4BB-/	4bb-/	4b-\ 4dd\ 4ff\	.
4r	4r	4r	.
4BBB-/ 4BB-/	2r	4b-\ 4dd\ 4ff\ 4bb-\	.
4r	.	4r	.
*	*v	*v	*
==	==	==
*-	*-	*-
!!!ENC: Craig Stuart Sapp
!!!END: 2008/02/24/
